X:4047
L:1/8
Q:1/4=68
M:4/4
K:Emin
 E | E2 E^D E2 EF | G4 G2 FG | A2 A2 A2 c2 | B3 A G2 A2 | B2 BA GABd | e4{d} d2 z2 |{F} G4{E} F4 | 
{E} E6 z2 | e3 ^d e2 f2 | g4 f2 gf | e2 e=d B2 A2 | G2 F2 E>FGA | B2 BA GABd | e4{d} d2 z2 | 
{FA} G4{EG} F4 |{E} E6 |]

